X: 247
T:Queen's Fancy
% Nottingham Music Database
S:Trad, arr Phil Rowe
M:6/8
K:D
"D"d2f a2f|"G"b2g "D"afd|"Bm"def "Em"g2e|"D"fed "A7"cBA|"G"B2d "D"A2d|\
"G"G2d "D"F2d|"E7"E2d "A7"cde|"D"d3 -d3::
"A"e2c ABc|"D"d2e fed|"A"e2c ABc|"D"dAG FED|
"A"e2c ABc|"D"d2e fed|"Em"gfe bag|"A7"fge "D"d3:|


